packages/kronos-fna-icons/src/cog.svg

<?xml version="1.0" encoding="UTF-8"?>
<svg width="20px" height="20px" viewBox="0 0 20 20" version="1.1" xmlns="http://www.w3.org/2000/svg" xmlns:xlink="http://www.w3.org/1999/xlink">
    <!-- Generator: Sketch 50.2 (55047) - http://www.bohemiancoding.com/sketch -->
    <title>cog</title>
    <desc>Created with Sketch.</desc>
    <defs></defs>
    <g id="cog" stroke="none" stroke-width="1" fill="none" fill-rule="evenodd">
        <path d="M20,11.230625 C20,11.230625 20,9.44033751 20,8.730625 L20,8.730625 L17.011875,7.485625 C16.92875,7.25125 16.84125,7.024375 16.73375,6.801875 L17.94,3.79875 L16.171875,2.03125 L13.195625,3.256875 C12.96875,3.146875 12.736875,3.054375 12.4975,2.96875 L11.230625,0 L8.730625,0 L7.495,2.95875 C7.24625,3.046875 7.006875,3.139375 6.77,3.251875 L3.79875,2.058125 L2.03125,3.825625 L3.2425,6.77 C3.125,7.011875 3.03,7.258125 2.939375,7.5125 L1.77635684e-15,8.769375 L1.77635684e-15,11.269375 L2.941875,12.495 C3.0325,12.74875 3.13,12.995625 3.246875,13.2375 L2.058125,16.20125 L3.825625,17.96875 L6.7775,16.753125 C7.014375,16.865625 7.25625,16.955625 7.505,17.04125 L8.769375,20 L11.269375,20 L12.506875,17.02625 C12.74375,16.938125 12.978125,16.845625 13.2025,16.738125 L16.200625,17.939375 L17.968125,16.171875 L16.7375,13.18875 C16.8425,12.964375 16.928125,12.736875 17.01125,12.505 L20,11.230625 L20,11.230625 Z M9.980625,13.75 C7.910625,13.75 6.230625,12.07 6.230625,10 C6.230625,7.93 7.910625,6.25 9.980625,6.25 C12.050625,6.25 13.730625,7.93 13.730625,10 C13.730625,12.07 12.050625,13.75 9.980625,13.75 L9.980625,13.75 Z" id="Shape-Copy-2" fill="#000000"></path>
    </g>
</svg>

<svg viewBox="0 0 20 20" xmlns="http://www.w3.org/2000/svg">
    <title>cog</title>
    <path d="M20 11.231v-2.5l-2.988-1.245a6.894 6.894 0 0 0-.278-.684l1.206-3.003-1.768-1.768-2.976 1.226a6.87 6.87 0 0 0-.698-.288L11.231 0h-2.5L7.495 2.959a7.625 7.625 0 0 0-.725.293L3.799 2.058 2.032 3.826 3.243 6.77a7.41 7.41 0 0 0-.303.743L.001 8.77v2.5l2.942 1.226c.091.254.188.501.305.742l-1.189 2.964 1.768 1.767 2.952-1.216c.237.113.479.203.728.288L8.771 20h2.5l1.237-2.974c.237-.088.471-.181.696-.288l2.998 1.201 1.768-1.767-1.231-2.983a7.74 7.74 0 0 0 .274-.684l2.989-1.274H20zM9.981 13.75c-2.07 0-3.75-1.68-3.75-3.75 0-2.07 1.68-3.75 3.75-3.75 2.07 0 3.75 1.68 3.75 3.75 0 2.07-1.68 3.75-3.75 3.75z" />
</svg>
